X:1
T:Title
%%score { ( 1 4 5 ) | ( 2 3 ) }
L:1/8
M:4/4
K:Ab
V:1 treble nm="Grand Piano"
V:4 treble 
V:5 treble 
V:2 bass 
V:3 bass 
V:1
 z4 z2[Q:1/4=100] [CA][DB] | [Ec]2 [Ec]2 [Ec]2 [Fd]c | cBB=A B2 c2 | [Gd]4 z4 | %4
[M:3/4] [CF]4 [CE]2 |[M:1/4] [CA][DB] |[M:4/4] [Ec]2 [Ec]2 [Ec]2 [Fd]c | cBB=A B2 c2 | [Ge]4 z4 | %9
[M:7/8] B- B3 [CA]3 |[M:1/4] [Ae]2 |[M:4/4] [Ge]3 [DGB] [DGB]2 G-[GB] | B3 A A2 e2 | %13
 [Ge]2 [GB]2 [Ge]2 [Gd]2 |[M:3/4] [Ad]4 [Ac]2 |[M:1/4] [CA][DB] |[M:4/4] [Ec]2 [Ec]2 [Ec]2 [Fd]c | %17
 cBB=A B2 c2 | [Ge]4 z4 |[M:15/8] B3- B [CA]2- [CA] z2 z6 |] %20
V:2
 z4 z2 [A,,A,]2 | [A,,A,]2 [A,,A,]2 [A,,A,]2 z E | [A,E][G,D][G,D][_G,C] [E,=G,D]2 [E,A,E]2 | %3
 [E,B,]2 z G [E,B,D]2 [E,B,D]2 |[M:3/4] [A,,A,]4 [A,,A,]2 |[M:1/4] [A,,A,]2 | %6
[M:4/4] [A,,A,]2 [A,,A,]2 [A,,A,]2 z E | [A,E][G,D][G,D][F,C] [E,G,D]2 [E,A,E]2 | %8
 [E,B,]2 z G [E,B,D]2 [E,B,D]2 |[M:7/8] [E,G,D]- [E,G,D]3 [A,,A,]3 |[M:1/4] [A,C]2 | %11
[M:4/4] [E,D]3 E, E,2 z[K:treble] D | [A,DG]3 [A,CE] [A,CE]2 [A,CA]2 | %13
 [E,D]2 [E,D]2 [E,B,]2 [E,E]2 |[M:3/4][K:treble] [A,F]4 [A,E]2 |[M:1/4][K:bass] [A,,A,]2 | %16
[M:4/4] [A,,A,]2 [A,,A,]2 [A,,A,]2 z E | [A,E][G,D][G,D][F,C] [E,G,D]2 [E,A,E]2 | %18
 [E,B,]2 z G [E,B,D]2 [E,B,D]2 |[M:15/8] [E,G,D]3- [E,G,D] [A,,A,]2- [A,,A,] z2 z6 |] %20
V:3
 x8 | z4 z2 [A,,A,]2 | E,2 E,2 z4 | z2 E,2 z4 |[M:3/4] x6 |[M:1/4] x2 |[M:4/4] z4 z2 [A,,A,]2 | %7
 E,2 E,2 z4 | z2 E,2 z4 |[M:7/8] x7 |[M:1/4] x2 |[M:4/4] z4 z2 E,2[K:treble] | x8 | x8 | %14
[M:3/4][K:treble] x6 |[M:1/4][K:bass] x2 |[M:4/4] z4 z2 [A,,A,]2 | E,2 E,2 z4 | z2 E,2 z4 | %19
[M:15/8] x15 |] %20
V:4
 x8 | x8 | x8 | z2 z B F2 G2 |[M:3/4] x6 |[M:1/4] x2 |[M:4/4] x8 | x8 | z2 z d F2 G2 |[M:7/8] x7 | %10
[M:1/4] x2 |[M:4/4] z4 z2 .[Ec]2 | x8 | x8 |[M:3/4] x6 |[M:1/4] x2 |[M:4/4] x8 | x8 | %18
 z2 z d F2 G2 |[M:15/8] x15 |] %20
V:5
 x8 | x8 | x8 | z2 B,2 z4 |[M:3/4] x6 |[M:1/4] x2 |[M:4/4] x8 | x8 | z2 B,2 z4 |[M:7/8] x7 | %10
[M:1/4] x2 |[M:4/4] x8 | x8 | x8 |[M:3/4] x6 |[M:1/4] x2 |[M:4/4] x8 | x8 | z2 B,2 z4 | %19
[M:15/8] x15 |] %20

